svg/free/input.svg

<svg version="1.1" xmlns="http://www.w3.org/2000/svg" width="24" height="24" viewBox="0 0 24 24">
<title>input</title>
<path d="M22.125 4.5h-20.25c-0.621 0.001-1.124 0.504-1.125 1.125v3.75h1.5v-3.375h19.5v12h-19.5v-3.375h-1.5v3.75c0.001 0.621 0.504 1.124 1.125 1.125h20.25c0.621-0.001 1.124-0.504 1.125-1.125v-12.75c-0.001-0.621-0.504-1.124-1.125-1.125h-0z"></path>
<path d="M9.97 15.144l1.061 1.061 4.243-4.243-4.243-4.243-1.061 1.061 2.432 2.432h-11.652v1.5h11.652l-2.432 2.432z"></path>
</svg>

<svg xmlns="http://www.w3.org/2000/svg" width="24" height="24" viewBox="0 0 24 24"><path d="M22.125 4.5H1.875A1.127 1.127 0 00.75 5.625v3.75h1.5V6h19.5v12H2.25v-3.375H.75v3.75A1.127 1.127 0 001.875 19.5h20.25a1.127 1.127 0 001.125-1.125V5.625A1.127 1.127 0 0022.125 4.5z"/><path d="M9.97 15.144l1.061 1.061 4.243-4.243-4.243-4.243L9.97 8.78l2.432 2.432H.75v1.5h11.652L9.97 15.144z"/></svg>
